!!!!SEGMENT: chor032.krn
!!!COM: Bach, Johann Sebastian
!!!CDT: 1685/02/21/-1750/07/28/
!!!OTL@@DE: Nun danket alle Gott
!!!SCT: BWV 386
!!!PC#: 32
!!!AGN: chorale
**kern	**kern	**kern	**kern
*ICvox	*ICvox	*ICvox	*ICvox
*Ibass	*Itenor	*Ialto	*Isoprn
*I"Bass	*I"Tenor	*I"Alto	*I"Soprano
*>[A,A,B]	*>[A,A,B]	*>[A,A,B]	*>[A,A,B]
*>norep[A,B]	*>norep[A,B]	*>norep[A,B]	*>norep[A,B]
*>A	*>A	*>A	*>A
*clefF4	*clefGv2	*clefG2	*clefG2
*k[f#c#g#]	*k[f#c#g#]	*k[f#c#g#]	*k[f#c#g#]
*A:	*A:	*A:	*A:
*M4/4	*M4/4	*M4/4	*M4/4
*met(c)	*met(c)	*met(c)	*met(c)
*MM100	*MM100	*MM100	*MM100
!!xywh-#25:118,448,2700,460
4AA	4c#	4a	4ee
=1	=1	=1	=1
8AL	4c#	4a	4ee
8BJ	.	.	.
8c#L	4c#	4a	4ee
8AJ	.	.	.
8DL	4d	4a	4ff#
8EJ	.	.	.
8F#L	4d	4a	4ff#
8DJ	.	.	.
=2	=2	=2	=2
2A;	2c#;	2a;	2ee;
4r	4ry	4ry	4r
4A	4f#	4a	4cc#
=3	=3	=3	=3
4G#	4e	4b	4dd
4A	4e	4a	4cc#
8EL	4e	4g#	4b
8DJ	.	.	.
8C#L	4e	4a	8cc#L
8AAJ	.	.	8ddJ
=4	=4	=4	=4
2E	8eL	8aL	2b
.	16dL	8f#J	.
.	16c#JJ	.	.
.	4d	4g#	.
4AA;	4c#;	4e;	4a;
=:|!	=:|!	=:|!	=:|!
*>B	*>B	*>B	*>B
4E	8BL	8g#L	4b
.	8AJ	8f#J	.
=5	=5	=5	=5
8EL	8G#L	4e	4b
8F#J	8AJ	.	.
8G#L	4.B	4e	4b
8EJ	.	.	.
8AAL	.	4e	4cc#
8BBJ	16ALL	.	.
.	16G#JJ	.	.
8C#L	4A	4e	4cc#
8AAJ	.	.	.
=6	=6	=6	=6
2EE;	2G#;	2e;	2b;
4r	4ry	4ry	4r
4E	4e	4g#	4b
=7	=7	=7	=7
8AL	4e	4a	8cc#L
8BJ	.	.	8dd#J
8c#L	8eL	4g#	4ee
8G#J	8BJ	.	.
8AL	4c#	4f#	4ee
8F#J	.	.	.
8BL	4B	4f#	4dd#
8BBJ	.	.	.
=8	=8	=8	=8
!!xywh-#25:102,898,1596,453
2E;	2B;	2g#;	2ee;
4r	4ry	4ry	4r
4A	4c#	4a	4ee
=9	=9	=9	=9
8dL	4d	8aL	4ff#
8c#	.	8bJ	.
8B	4c#	4cc#	4ee
8A#J	.	.	.
8BL	4f#	8cc#L	4dd
8D	.	8bJ	.
8E	8gL	8bL	4cc#
8F#J	8f#J	8a#J	.
=10	=10	=10	=10
2BB;	2f#;	2b;	2dd;
4r	4ry	4ry	4r
8C#L	4e	4anX	4cc#
8DJ	.	.	.
=11	=11	=11	=11
4E	4e	4g#	4b
8AL	8eL	4a	8cc#L
8F#J	8f#J	.	8ddJ
8DL	8f#L	4a	4.b
8BBJ	8dJ	.	.
8EL	8BL	4g#	.
8EEJ	8eJ	.	8a
=12	=12	=12	=12
2.AA;	2.c#;	2.e;	2.a;
==	==	==	==
*-	*-	*-	*-
!!!URL-github: https://github.com/craigsapp/bach-370-chorales/blob/main/kern/chor032.krn
!!!URL-scan: https://www.digitale-sammlungen.de/en/view/bsb11108042?page=25 Plate 12021 from the Bavarian State Library
!!!IIIF: https://api.digitale-sammlungen.de/iiif/presentation/v2/bsb11108042/manifest
!!!title: Chorale @{PC#}. @{OTL@@DE} (@{SCT})
!!!YOR1: 371 vierstimmige Choralges&auml;nge von Johann Sebastian Bach,
!!!YOR2: 4th ed. by Alfred D&ouml;rffel (Leipzig: Breitkopf und H&auml;rtel,
!!!YOR2: c.1875). 178 pp. Plate "V.A.10".  reprint: J.S. Bach, 371 Four-Part
!!!YOR4: Chorales (New York: Associated Music Publishers, Inc., c.1940).
!!!SMS: B&H, 4th ed, Alfred D&ouml;rffel, c.1875, plate V.A.10
!!!EED: Craig Stuart Sapp
!!!EEV: 2009/05/22
!!!filter-keyboard: satb2gs
<<<<<<< HEAD
!!!filter-ctonic: transpose -k c
=======
>>>>>>> a199df6 (Add pitch-range embedded filters.)
!!!filter-pitch-ranges: prange -a
